X: 92
M:2/4
L:1/16
K:G
vBDED B,DBd|d^cd"4"e dBAG|cEdc BDcB|AdBG "4"AGEF|
|:vgdbg fdaf|ecge dBAG|gdbg fdaf|egc"4"e d4|
vgdbg fdaf|ecge dBAG|DGGD EGc"4"e|dcBA G4:|


